X: 529
T:Hughie Travers' # 1
R:reel
S:Mary, Mike Rafferty
N:also in Henrik Norbeck's #349 as no name.
Z:Lesl
M:C|
L:1/8
N:Posted to the woodenflute mailing list June 2002
K:G
g2ge|dBBA BzGB|dBGB AGED|GGBd g~g2a|gedB Azge|
dBBA BzGB|dBGB AGED|GGBd g~g2z|1 gedB g~g2e:|2 gedB G~G2A||
|Bddz edBd|edgd edgd|Bded gzfa|gedB ABGA|
Bddz edBd|edgd edgz|Bdef g~g2a|1 gedB G~G2A:|2 gedB G4||
<end>
<start>
